assets/ios/swift/Icons.xcassets/chat.imageset/chat.svg

<svg width="24" height="24" viewBox="0 0 24 24" fill="none" xmlns="http://www.w3.org/2000/svg">
<path d="M1.50002 21.25L2.95002 16.3C2.63335 15.6167 2.39585 14.9167 2.23752 14.2C2.07918 13.4833 2.00002 12.75 2.00002 12C2.00002 10.6167 2.26252 9.31667 2.78752 8.1C3.31252 6.88333 4.02502 5.825 4.92502 4.925C5.82502 4.025 6.88335 3.3125 8.10002 2.7875C9.31668 2.2625 10.6167 2 12 2C13.3833 2 14.6834 2.2625 15.9 2.7875C17.1167 3.3125 18.175 4.025 19.075 4.925C19.975 5.825 20.6875 6.88333 21.2125 8.1C21.7375 9.31667 22 10.6167 22 12C22 13.3833 21.7375 14.6833 21.2125 15.9C20.6875 17.1167 19.975 18.175 19.075 19.075C18.175 19.975 17.1167 20.6875 15.9 21.2125C14.6834 21.7375 13.3833 22 12 22C11.25 22 10.5167 21.9208 9.80002 21.7625C9.08335 21.6042 8.38335 21.3667 7.70002 21.05L2.75002 22.5C2.36668 22.6167 2.03335 22.5333 1.75002 22.25C1.46668 21.9667 1.38335 21.6333 1.50002 21.25ZM3.95002 20.05L7.15002 19.1C7.23335 19.0667 7.32502 19.0458 7.42502 19.0375C7.52502 19.0292 7.61668 19.025 7.70002 19.025C7.85002 19.025 7.99585 19.0375 8.13752 19.0625C8.27918 19.0875 8.41668 19.1333 8.55002 19.2C9.08335 19.4667 9.64168 19.6667 10.225 19.8C10.8083 19.9333 11.4 20 12 20C14.2333 20 16.125 19.225 17.675 17.675C19.225 16.125 20 14.2333 20 12C20 9.76667 19.225 7.875 17.675 6.325C16.125 4.775 14.2333 4 12 4C9.76668 4 7.87502 4.775 6.32502 6.325C4.77502 7.875 4.00002 9.76667 4.00002 12C4.00002 12.6 4.06668 13.1917 4.20002 13.775C4.33335 14.3583 4.53335 14.9167 4.80002 15.45C4.91668 15.6667 4.97918 15.8958 4.98752 16.1375C4.99585 16.3792 4.96668 16.6167 4.90002 16.85L3.95002 20.05Z" fill="black"/>
</svg>

<svg xmlns="http://www.w3.org/2000/svg" width="24" height="24" fill="black" viewBox="0 0 24 24">
  <path d="m1.5 21.25 1.45-4.95a10.232 10.232 0 0 1-.712-2.1A10.167 10.167 0 0 1 2 12a9.74 9.74 0 0 1 .788-3.9 10.099 10.099 0 0 1 2.137-3.175c.9-.9 1.958-1.612 3.175-2.137A9.738 9.738 0 0 1 12 2a9.74 9.74 0 0 1 3.9.788 10.098 10.098 0 0 1 3.175 2.137c.9.9 1.613 1.958 2.137 3.175A9.738 9.738 0 0 1 22 12a9.738 9.738 0 0 1-.788 3.9 10.098 10.098 0 0 1-2.137 3.175c-.9.9-1.958 1.613-3.175 2.137A9.737 9.737 0 0 1 12 22c-.75 0-1.483-.08-2.2-.238a10.23 10.23 0 0 1-2.1-.712L2.75 22.5a.936.936 0 0 1-1-.25.936.936 0 0 1-.25-1Zm2.45-1.2 3.2-.95a.949.949 0 0 1 .275-.063c.1-.008.192-.012.275-.012.15 0 .296.013.438.038.141.024.279.07.412.137a7.434 7.434 0 0 0 1.675.6c.583.133 1.175.2 1.775.2 2.233 0 4.125-.775 5.675-2.325C19.225 16.125 20 14.233 20 12c0-2.233-.775-4.125-2.325-5.675C16.125 4.775 14.233 4 12 4c-2.233 0-4.125.775-5.675 2.325C4.775 7.875 4 9.767 4 12c0 .6.067 1.192.2 1.775s.333 1.142.6 1.675c.117.217.18.446.188.688a2.29 2.29 0 0 1-.088.712l-.95 3.2Z"/>
</svg>
